X:1503
T:Black Ewe,The. HA09
M:4/4
L:1/4
Q:100
S:Henry Atkinson MS,Hartburn,Northumberland,1694/5 transcribed John Stokoe 1883
Z:vmp.Cherri Graebe
K:G Major
g|d>B d/B/A/G/|G2D2|EGBA/G/|A3g|d>B d/B/A/G/|F2D2|EGBd|g3|!
|B|c>d e/d/e/f/|f>ede/f/|g/e/gBA/G/|A3g|d>B d/B/A/G/|B/c/dD2|EGBd|g3||


